src/Pure-Dark/16/symbolic/emblems/emblem-videos-symbolic.svg

<svg width="16" height="16" version="1.1" xmlns="http://www.w3.org/2000/svg">
 <path d="m16 3.9375-4 2v-0.9375c0-0.554-0.446-1-1-1h-10c-0.554 0-1 0.446-1 1v6c0 0.554 0.446 1 1 1h10c0.554 0 1-0.446 1-1v-0.9375l4 2zm-15 1.0625h10v6h-10zm14 0.55469v4.8906l-3-1.5078v-1.875z" fill="#f2f2f2" stroke-linecap="round" stroke-linejoin="round" stroke-width="2" style="paint-order:stroke fill markers"/>
</svg>

<?xml version="1.0" encoding="UTF-8" standalone="no"?>
<svg
   width="16"
   height="16"
   version="1.1"
   id="svg1"
   sodipodi:docname="emblem-videos-symbolic.svg"
   inkscape:version="1.4.2 (ebf0e940d0, 2025-05-08)"
   xmlns:inkscape="http://www.inkscape.org/namespaces/inkscape"
   xmlns:sodipodi="http://sodipodi.sourceforge.net/DTD/sodipodi-0.dtd"
   xmlns="http://www.w3.org/2000/svg"
   xmlns:svg="http://www.w3.org/2000/svg">
  <defs
     id="defs1">
     <style
        id="current-color-scheme"
        type="text/css">
        .ColorScheme-Text { color:#f2f2f2; }
     </style>
  </defs>
  <sodipodi:namedview
     id="namedview1"
     pagecolor="#ffffff"
     bordercolor="#000000"
     borderopacity="0.25"
     inkscape:showpageshadow="2"
     inkscape:pageopacity="0.0"
     inkscape:pagecheckerboard="0"
     inkscape:deskcolor="#d1d1d1"
     inkscape:zoom="49.6875"
     inkscape:cx="8"
     inkscape:cy="8"
     inkscape:window-width="1920"
     inkscape:window-height="1010"
     inkscape:window-x="0"
     inkscape:window-y="0"
     inkscape:window-maximized="1"
     inkscape:current-layer="svg1" />
  <path
     id="path1"
     style="fill:currentColor"
     class="ColorScheme-Text"
     d="M 16 3.9375 L 12 5.9375 L 12 5 C 12 4.446 11.554 4 11 4 L 1 4 C 0.446 4 0 4.446 0 5 L 0 11 C 0 11.554 0.446 12 1 12 L 11 12 C 11.554 12 12 11.554 12 11 L 12 10.0625 L 16 12.0625 L 16 3.9375 z M 1 5 L 11 5 L 11 11 L 1 11 L 1 5 z M 15 5.5546875 L 15 10.445312 L 12 8.9375 L 12 7.0625 L 15 5.5546875 z " />
</svg>
